X:3775
T:Dans a ruz
R:Gavotte
A:Bretagne Pont-Aven
O:France
M:4/4
L:1/8
Q:1/4=180
K:D
F>E FG AF D2|F>E FG A2d2|F>E FG AF D2|E>D EF D2D2|
|EE E2 FF F2|G>F EF DF A2|EEE2 FFF2|G>F GAF4||
